Numix/16/status/indicator-keyboard-Sv.svg

<?xml version="1.0" encoding="UTF-8" standalone="no"?>
<svg
   xmlns:dc="http://purl.org/dc/elements/1.1/"
   xmlns:cc="http://creativecommons.org/ns#"
   xmlns:rdf="http://www.w3.org/1999/02/22-rdf-syntax-ns#"
   xmlns:svg="http://www.w3.org/2000/svg"
   xmlns="http://www.w3.org/2000/svg"
   xmlns:sodipodi="http://sodipodi.sourceforge.net/DTD/sodipodi-0.dtd"
   xmlns:inkscape="http://www.inkscape.org/namespaces/inkscape"
   viewBox="0 0 16 16"
   id="svg2"
   version="1.1"
   inkscape:version="0.91 r13725"
   sodipodi:docname="indicator-keyboard-Sv.svg">
  <metadata
     id="metadata13">
    <rdf:RDF>
      <cc:Work
         rdf:about="">
        <dc:format>image/svg+xml</dc:format>
        <dc:type
           rdf:resource="http://purl.org/dc/dcmitype/StillImage" />
      </cc:Work>
    </rdf:RDF>
  </metadata>
  <defs
     id="defs11" />
  <sodipodi:namedview
     pagecolor="#ffffff"
     bordercolor="#666666"
     borderopacity="1"
     objecttolerance="10"
     gridtolerance="10"
     guidetolerance="10"
     inkscape:pageopacity="0"
     inkscape:pageshadow="2"
     inkscape:window-width="640"
     inkscape:window-height="480"
     id="namedview9"
     showgrid="false"
     inkscape:zoom="14.75"
     inkscape:cx="8"
     inkscape:cy="8"
     inkscape:window-x="65"
     inkscape:window-y="24"
     inkscape:window-maximized="0"
     inkscape:current-layer="svg2" />
  <path
     style="fill:#ececec;fill-opacity:1"
     d="M 1.5996094 0 C 0.71320937 2.9605947e-16 0 0.71320937 0 1.5996094 L 0 14.400391 C 2.9605947e-16 15.286791 0.71320937 16 1.5996094 16 L 14.400391 16 C 15.286791 16 16 15.286791 16 14.400391 L 16 1.5996094 C 16 0.71320937 15.286791 0 14.400391 0 L 1.5996094 0 z M 5.984375 4.7460938 C 6.152375 4.7460938 6.3184688 4.7592031 6.4804688 4.7832031 C 6.6424687 4.8072031 6.7916875 4.8388594 6.9296875 4.8808594 C 7.0736875 4.9168594 7.2024063 4.9598125 7.3164062 5.0078125 C 7.4364062 5.0558125 7.5352813 5.1061563 7.6132812 5.1601562 L 7.3984375 5.6738281 C 7.2244375 5.5538281 7.0098125 5.4567656 6.7578125 5.3847656 C 6.5118125 5.3127656 6.2450312 5.2773438 5.9570312 5.2773438 C 5.7590312 5.2773438 5.5762031 5.2978437 5.4082031 5.3398438 C 5.2462031 5.3758437 5.1063281 5.4392969 4.9863281 5.5292969 C 4.8663281 5.6132969 4.7692656 5.7215156 4.6972656 5.8535156 C 4.6312656 5.9855156 4.5976562 6.1440781 4.5976562 6.3300781 C 4.5976562 6.5220781 4.6350312 6.6844063 4.7070312 6.8164062 C 4.7790313 6.9484063 4.8779062 7.0622031 5.0039062 7.1582031 C 5.1359062 7.2542031 5.2888906 7.3419219 5.4628906 7.4199219 C 5.6368906 7.4979219 5.8252969 7.5781094 6.0292969 7.6621094 C 6.2752969 7.7641094 6.5066562 7.86675 6.7226562 7.96875 C 6.9446563 8.07075 7.1368281 8.190125 7.2988281 8.328125 C 7.4608281 8.466125 7.5895469 8.6340313 7.6855469 8.8320312 C 7.7815469 9.0300313 7.8300781 9.2725469 7.8300781 9.5605469 C 7.8300781 10.124547 7.6323281 10.548078 7.2363281 10.830078 C 6.8463281 11.112078 6.3145781 11.253906 5.6425781 11.253906 C 5.4025781 11.253906 5.1843281 11.238984 4.9863281 11.208984 C 4.7883281 11.178984 4.6110781 11.141609 4.4550781 11.099609 C 4.2990781 11.051609 4.1665937 11.005031 4.0585938 10.957031 C 3.9505937 10.909031 3.8666406 10.866078 3.8066406 10.830078 L 4.0039062 10.298828 C 4.0639062 10.334828 4.1460469 10.377781 4.2480469 10.425781 C 4.3500469 10.473781 4.4694219 10.522312 4.6074219 10.570312 C 4.7454219 10.612312 4.9021719 10.647734 5.0761719 10.677734 C 5.2501719 10.707734 5.4423437 10.722656 5.6523438 10.722656 C 6.1383438 10.722656 6.5151562 10.634938 6.7851562 10.460938 C 7.0551563 10.280937 7.1914062 9.9936564 7.1914062 9.5976562 C 7.1914062 9.3696562 7.1446875 9.18125 7.0546875 9.03125 C 6.9706875 8.87525 6.8568906 8.7445781 6.7128906 8.6425781 C 6.5688906 8.5345781 6.40475 8.4450469 6.21875 8.3730469 C 6.03275 8.2950469 5.8368125 8.2148594 5.6328125 8.1308594 C 5.3748125 8.0288594 5.1454062 7.9244062 4.9414062 7.8164062 C 4.7374063 7.7084063 4.5619687 7.5870781 4.4179688 7.4550781 C 4.2739687 7.3170781 4.1639375 7.1622813 4.0859375 6.9882812 C 4.0139375 6.8142812 3.9785156 6.609 3.9785156 6.375 C 3.9785156 5.841 4.1538125 5.4361562 4.5078125 5.1601562 C 4.8618125 4.8841563 5.354375 4.7460938 5.984375 4.7460938 z M 8.2324219 6.4648438 L 8.8535156 6.4648438 C 8.9255156 6.7828437 9.0132344 7.1261875 9.1152344 7.4921875 C 9.2232344 7.8521875 9.3370312 8.2122656 9.4570312 8.5722656 C 9.5830312 8.9262656 9.71175 9.2714219 9.84375 9.6074219 C 9.9757499 9.937422 10.104469 10.230281 10.230469 10.488281 C 10.356469 10.230281 10.487141 9.937422 10.619141 9.6074219 C 10.751141 9.2714219 10.876094 8.9262656 10.996094 8.5722656 C 11.122094 8.2122656 11.235891 7.8521875 11.337891 7.4921875 C 11.445891 7.1261875 11.535422 6.7828437 11.607422 6.4648438 L 12.193359 6.4648438 C 12.085359 6.8908438 11.965984 7.3106094 11.833984 7.7246094 C 11.701984 8.1386094 11.560156 8.5454063 11.410156 8.9414062 C 11.266156 9.3374062 11.113172 9.7179842 10.951172 10.083984 C 10.795172 10.449984 10.642188 10.795141 10.492188 11.119141 L 9.9335938 11.119141 C 9.7775937 10.795141 9.6227969 10.449984 9.4667969 10.083984 C 9.3107969 9.7179842 9.1578125 9.3374062 9.0078125 8.9414062 C 8.8638125 8.5454062 8.72575 8.1386094 8.59375 7.7246094 C 8.46175 7.3106094 8.3404219 6.8908437 8.2324219 6.4648438 z "
     id="path4" />
</svg>

<svg xmlns="http://www.w3.org/2000/svg" viewBox="0 0 16 16">
 <path d="m 1.6 0 c -0.886 0 -1.6 0.713 -1.6 1.6 l 0 12.801 c 0 0.886 0.713 1.6 1.6 1.6 l 12.801 0 c 0.886 0 1.6 -0.713 1.6 -1.6 l 0 -12.801 c 0 -0.886 -0.713 -1.6 -1.6 -1.6 l -12.801 0 z m 4.385 4.746 c 0.168 0 0.334 0.013 0.496 0.037 c 0.162 0.024 0.311 0.056 0.449 0.098 c 0.144 0.036 0.273 0.079 0.387 0.127 c 0.12 0.048 0.219 0.098 0.297 0.152 l -0.215 0.514 c -0.174 -0.12 -0.389 -0.217 -0.641 -0.289 c -0.246 -0.072 -0.513 -0.107 -0.801 -0.107 c -0.198 0 -0.381 0.02 -0.549 0.063 c -0.162 0.036 -0.302 0.099 -0.422 0.189 c -0.12 0.084 -0.217 0.192 -0.289 0.324 c -0.066 0.132 -0.1 0.291 -0.1 0.477 c 0 0.192 0.037 0.354 0.109 0.486 c 0.072 0.132 0.171 0.246 0.297 0.342 c 0.132 0.096 0.285 0.184 0.459 0.262 c 0.174 0.078 0.362 0.158 0.566 0.242 c 0.246 0.102 0.477 0.205 0.693 0.307 c 0.222 0.102 0.414 0.221 0.576 0.359 c 0.162 0.138 0.291 0.306 0.387 0.504 c 0.096 0.198 0.145 0.441 0.145 0.729 c 0 0.564 -0.198 0.988 -0.594 1.27 c -0.39 0.282 -0.922 0.424 -1.594 0.424 c -0.24 0 -0.458 -0.015 -0.656 -0.045 c -0.198 -0.03 -0.375 -0.067 -0.531 -0.109 c -0.156 -0.048 -0.288 -0.095 -0.396 -0.143 c -0.108 -0.048 -0.192 -0.091 -0.252 -0.127 l 0.197 -0.531 c 0.06 0.036 0.142 0.079 0.244 0.127 c 0.102 0.048 0.221 0.097 0.359 0.145 c 0.138 0.042 0.295 0.077 0.469 0.107 c 0.174 0.03 0.366 0.045 0.576 0.045 c 0.486 0 0.863 -0.088 1.133 -0.262 c 0.27 -0.18 0.406 -0.467 0.406 -0.863 c 0 -0.228 -0.047 -0.416 -0.137 -0.566 c -0.084 -0.156 -0.198 -0.287 -0.342 -0.389 c -0.144 -0.108 -0.308 -0.198 -0.494 -0.27 c -0.186 -0.078 -0.382 -0.158 -0.586 -0.242 c -0.258 -0.102 -0.487 -0.206 -0.691 -0.314 c -0.204 -0.108 -0.379 -0.229 -0.523 -0.361 c -0.144 -0.138 -0.254 -0.293 -0.332 -0.467 c -0.072 -0.174 -0.107 -0.379 -0.107 -0.613 c 0 -0.534 0.175 -0.939 0.529 -1.215 c 0.354 -0.276 0.847 -0.414 1.477 -0.414 z m 2.248 1.719 l 0.621 0 c 0.072 0.318 0.16 0.661 0.262 1.027 c 0.108 0.36 0.222 0.72 0.342 1.08 c 0.126 0.354 0.255 0.699 0.387 1.035 c 0.132 0.33 0.261 0.623 0.387 0.881 c 0.126 -0.258 0.257 -0.551 0.389 -0.881 c 0.132 -0.336 0.257 -0.681 0.377 -1.035 c 0.126 -0.36 0.24 -0.72 0.342 -1.08 c 0.108 -0.366 0.198 -0.709 0.27 -1.027 l 0.586 0 c -0.108 0.426 -0.227 0.846 -0.359 1.26 c -0.132 0.414 -0.274 0.821 -0.424 1.217 c -0.144 0.396 -0.297 0.777 -0.459 1.143 c -0.156 0.366 -0.309 0.711 -0.459 1.035 l -0.559 0 c -0.156 -0.324 -0.311 -0.669 -0.467 -1.035 c -0.156 -0.366 -0.309 -0.747 -0.459 -1.143 c -0.144 -0.396 -0.282 -0.803 -0.414 -1.217 c -0.132 -0.414 -0.253 -0.834 -0.361 -1.26 z" style="fill:#ececec;fill-opacity:1"/>
</svg>
